src/components/common/icons/zoom.svg

<svg height="49" viewBox="0 0 50 49" width="50" xmlns="http://www.w3.org/2000/svg"><g fill="#010202" fill-rule="evenodd"><path d="m8.13403226 14.7412903c0 3.3161291 2.68709674 6.0032258 6.00322584 6.0032258 3.3129032 0 6-2.6870967 6-6.0032258 0-3.3145161-2.6870968-6.00161288-6-6.00161288-3.3161291 0-6.00322584 2.68709678-6.00322584 6.00161288m8.00483874 0c0 1.1048387-.9 2-2.0016129 2-1.1048387 0-2.0016129-.8951613-2.0016129-2 0-1.1032258.8967742-1.9983871 2.0016129-1.9983871 1.1016129 0 2.0016129.8951613 2.0016129 1.9983871"/><path d="m41.4725806 8.74016129v-8.0016129h-4v8.0016129h-7.9967741v4.00000001h7.9967741v8.0016129h4v-8.0016129h8.0080646v-4.00000001z"/><path d="m37.4717742 44.7501613h-33.33387097v-40.00322582h29.33225807v-4.0016129h-33.33387098v48.00645162h41.33548388v-24.0064516h-4z"/><path d="m.13725807 33.4693548c2.31774193 1.5370968 4.94193548 3.2790323 9.24032258 3.2790323 4.29838705 0 6.92419355-1.7419355 9.24193545-3.2790323 2.067742-1.3725806 3.8548387-2.5564516 6.8080645-2.5564516 2.9532259 0 4.7387097 1.183871 6.8064517 2.5564516 2.3193548 1.5370968 4.9451612 3.2790323 9.2435483 3.2790323v-4.0016129c-3.0919354 0-4.9177419-1.2096774-7.032258-2.6096774-2.2774194-1.5129033-4.8580645-3.2241936-9.017742-3.2241936-4.1596774 0-6.7403225 1.7112903-9.0193548 3.2225807-2.1145161 1.4016129-3.9387097 2.6112903-7.03064515 2.6112903-3.09032259 0-4.91612904-1.2096774-7.02903226-2.6096774-2.27903226-1.5129033-1.15645162.3129032-2.21129032 3.332258"/></g></svg>

<?xml version="1.0" encoding="UTF-8"?>
<svg width="50px" height="49px" viewBox="0 0 50 49" version="1.1" xmlns="http://www.w3.org/2000/svg" xmlns:xlink="http://www.w3.org/1999/xlink">
    <!-- Generator: Sketch 52.5 (67469) - http://www.bohemiancoding.com/sketch -->
    <title>Icons/.zoom</title>
    <desc>Created with Sketch.</desc>
    <g id="Vapaaehtoisalusta-Layouts" stroke="none" stroke-width="1" fill="none" fill-rule="evenodd">
        <g id="HKI-Ikonit" transform="translate(-1128.000000, -658.000000)" fill="#010202">
            <g id="Icons/.zoom" transform="translate(1128.000000, 658.000000)">
                <path d="M8.13403226,14.7412903 C8.13403226,18.0574194 10.821129,20.7445161 14.1372581,20.7445161 C17.4501613,20.7445161 20.1372581,18.0574194 20.1372581,14.7412903 C20.1372581,11.4267742 17.4501613,8.73967742 14.1372581,8.73967742 C10.821129,8.73967742 8.13403226,11.4267742 8.13403226,14.7412903 M16.138871,14.7412903 C16.138871,15.846129 15.238871,16.7412903 14.1372581,16.7412903 C13.0324194,16.7412903 12.1356452,15.846129 12.1356452,14.7412903 C12.1356452,13.6380645 13.0324194,12.7429032 14.1372581,12.7429032 C15.238871,12.7429032 16.138871,13.6380645 16.138871,14.7412903" id="Fill-77"></path>
                <polygon id="Fill-78" points="41.4725806 8.74016129 41.4725806 0.738548387 37.4725806 0.738548387 37.4725806 8.74016129 29.4758065 8.74016129 29.4758065 12.7401613 37.4725806 12.7401613 37.4725806 20.7417742 41.4725806 20.7417742 41.4725806 12.7401613 49.4806452 12.7401613 49.4806452 8.74016129"></polygon>
                <polygon id="Fill-79" points="37.4717742 44.7501613 4.13790323 44.7501613 4.13790323 4.74693548 33.4701613 4.74693548 33.4701613 0.745322581 0.136290323 0.745322581 0.136290323 48.7517742 41.4717742 48.7517742 41.4717742 24.7453226 37.4717742 24.7453226"></polygon>
                <path d="M0.137258065,33.4693548 C2.455,35.0064516 5.07919355,36.7483871 9.37758065,36.7483871 C13.6759677,36.7483871 16.3017742,35.0064516 18.6195161,33.4693548 C20.6872581,32.0967742 22.4743548,30.9129032 25.4275806,30.9129032 C28.3808065,30.9129032 30.1662903,32.0967742 32.2340323,33.4693548 C34.5533871,35.0064516 37.1791935,36.7483871 41.4775806,36.7483871 L41.4775806,32.7467742 C38.3856452,32.7467742 36.5598387,31.5370968 34.4453226,30.1370968 C32.1679032,28.6241935 29.5872581,26.9129032 25.4275806,26.9129032 C21.2679032,26.9129032 18.6872581,28.6241935 16.4082258,30.1354839 C14.2937097,31.5370968 12.4695161,32.7467742 9.37758065,32.7467742 C6.28725806,32.7467742 4.46145161,31.5370968 2.34854839,30.1370968 C0.069516129,28.6241935 1.19209677,30.45 0.137258065,33.4693548" id="Fill-80"></path>
            </g>
        </g>
    </g>
</svg>
